X:125
T:Village Maid,The. RHu.125
S:R.Hughes MS,1823,Whitchurch,Shrops.
A:Whitchurch, Shropshire
Z:Tony Weatherall 2006
M:2/4
L:1/8
Q:1/4=120
R:Country Dance
K:G
G/F/G/A/ GB|AG G2|B/A/B/c/ Bd|cB B2|!
df/e/ da/f/|db/g/ db|c’agf|g2G2:|!
bg ef/g/|af de/f/|ged^c|d/^c/d/e/ dd|!
bg ef/g/|af de/f/|ged^c|d2d2||!
G/F/G/A/ GB|AGG2|B/A/B/c/ Bd|cB B2|!
df/e/ da/f/|db/g/|db|c’agf g4||!
d>e/2d/4 cB|ddcB|e>f/2e/4 dc|eedc|!
d>e/2d/4 cB|ddcB|cAGF|G2G,2||!
Dd/^c/ d=c|dgfg|Dd/^c/ d=c|dgfg|!
ec’c’c’|dbbb|a/b/a/g/ f/g/f/e/|d/e/d/c/ B/c/B/A/|!
d>e/2d/4 cB|ddcB|e>f/2e/4 dc|eedc|!
d>e/2d/4 cB|ddcB|cAGF|G4|]

